packages/foundations/assets/icons/functional/images/transportation/handcart_28.svg

<svg width="28" height="28" viewBox="0 0 28 28" fill="none" xmlns="http://www.w3.org/2000/svg">
<g clip-path="url(#clip0_2214_7281)">
<path fill-rule="evenodd" clip-rule="evenodd" d="M6.12445 18.8125C7.5742 18.8125 8.74945 19.9878 8.74945 21.4375C8.74945 22.8872 7.5742 24.0625 6.12445 24.0625C4.6747 24.0625 3.49945 22.8872 3.49945 21.4375C3.49945 19.9878 4.6747 18.8125 6.12445 18.8125ZM17.4995 18.8125C18.9492 18.8125 20.1245 19.9878 20.1245 21.4375C20.1245 22.8872 18.9492 24.0625 17.4995 24.0625C16.0497 24.0625 14.8745 22.8872 14.8745 21.4375C14.8745 19.9878 16.0497 18.8125 17.4995 18.8125ZM6.12445 20.5625C5.6412 20.5625 5.24945 20.9543 5.24945 21.4375C5.24945 21.9207 5.6412 22.3125 6.12445 22.3125C6.6077 22.3125 6.99945 21.9207 6.99945 21.4375C6.99945 20.9543 6.6077 20.5625 6.12445 20.5625ZM17.4995 20.5625C17.0162 20.5625 16.6245 20.9543 16.6245 21.4375C16.6245 21.9207 17.0162 22.3125 17.4995 22.3125C17.9827 22.3125 18.3745 21.9207 18.3745 21.4375C18.3745 20.9543 17.9827 20.5625 17.4995 20.5625ZM13.6098 19.8345C14.0119 20.1025 14.1206 20.6458 13.8525 21.0479C13.6036 21.4212 13.1174 21.5416 12.7273 21.3422C12.4545 21.1554 12.1599 21.0572 11.8436 21.0479C11.5273 21.0385 11.2411 21.1194 10.9848 21.2905C10.5827 21.5586 10.0395 21.45 9.77141 21.0479C9.50335 20.6458 9.612 20.1025 10.0141 19.8345C11.1028 19.1087 12.5211 19.1087 13.6098 19.8345ZM21.8745 3.9375C23.0607 3.9375 24.0759 4.7692 24.32 5.9159C25.5426 14.0613 26.1825 18.3169 26.2398 18.6827C26.3256 19.2314 25.8811 19.5905 25.5867 19.6614C25.3904 19.7086 24.2237 20.0003 22.0867 20.5364C21.6178 20.6536 21.1428 20.3685 21.0256 19.8997C20.9167 19.4644 21.1674 18.9687 21.6622 18.8386L24.391 18.1554L22.6168 6.32681C22.5663 5.98997 22.2703 5.6875 21.8745 5.6875C21.3912 5.6875 20.9994 5.29575 20.9994 4.8125C20.9994 4.32925 21.3912 3.9375 21.8745 3.9375ZM20.9995 10.9375C21.4827 10.9375 21.8745 11.3293 21.8745 11.8125C21.8745 12.2612 21.502 12.6875 20.9954 12.6875V15.3098C20.922 16.7086 19.8706 17.8531 18.5251 17.933H5.09877C3.75327 17.8531 2.70192 16.7086 2.62854 15.3098L2.62445 12.6875C2.1412 12.6875 1.74945 12.2957 1.74945 11.8125C1.74945 11.3638 2.1282 10.9375 2.62445 10.9375H20.9995ZM19.2495 12.6875H4.37445L4.37981 15.2689C4.42577 15.7605 4.85389 16.1312 5.24945 16.1816H18.4667C18.8622 16.1312 19.1981 15.7605 19.2441 15.2689L19.2495 12.6875Z" fill="#1A1C1F"/>
</g>
<defs>
<clipPath id="clip0_2214_7281">
<rect width="28" height="28" fill="white"/>
</clipPath>
</defs>
</svg>

<svg xmlns="http://www.w3.org/2000/svg" width="28" height="28" fill="none"><g clip-path="url(#a)"><path fill="#1A1C1F" fill-rule="evenodd" d="M6.124 18.813a2.625 2.625 0 1 1 0 5.25 2.625 2.625 0 0 1 0-5.25m11.376 0a2.625 2.625 0 1 1 0 5.25 2.625 2.625 0 0 1 0-5.25m-11.376 1.75a.875.875 0 1 0 0 1.75.875.875 0 0 0 0-1.75m11.376 0a.875.875 0 1 0 0 1.75.875.875 0 0 0 0-1.75m-3.89-.729a.875.875 0 0 1-.883 1.508 1.6 1.6 0 0 0-.883-.294 1.43 1.43 0 0 0-.86.243.875.875 0 1 1-.97-1.457 3.24 3.24 0 0 1 3.596 0m8.265-15.896a2.5 2.5 0 0 1 2.445 1.978 9764 9764 0 0 0 1.92 12.767c.086.548-.359.907-.653.978q-.295.072-3.5.875a.875.875 0 0 1-1.061-.636.883.883 0 0 1 .636-1.061l2.729-.684-1.774-11.828a.755.755 0 0 0-.742-.64.875.875 0 1 1 0-1.75m-.875 7c.483 0 .875.391.875.874a.886.886 0 0 1-.88.876v2.622c-.073 1.399-1.124 2.543-2.47 2.623H5.1c-1.346-.08-2.397-1.224-2.47-2.623l-.005-2.623a.875.875 0 0 1-.875-.874c0-.45.38-.876.875-.876zm-1.75 1.75H4.374l.006 2.58c.046.492.474.863.87.914h13.217c.395-.05.731-.421.777-.913z" clip-rule="evenodd"/></g><defs><clipPath id="a"><path fill="#fff" d="M0 0h28v28H0z"/></clipPath></defs></svg>
